src/dsmComponents/Icons/car-driving-12px.svg

<?xml version="1.0" encoding="UTF-8"?>
<svg width="12px" height="10px" viewBox="0 0 12 10" version="1.1" xmlns="http://www.w3.org/2000/svg" xmlns:xlink="http://www.w3.org/1999/xlink">
    <!-- Generator: Sketch 59.1 (86144) - https://sketch.com -->
    <title>car-driving-12px</title>
    <desc>Created with Sketch.</desc>
    <defs>
        <path d="M9.345,6.467 C8.925,6.467 8.584,6.127 8.584,5.707 C8.584,5.287 8.925,4.946 9.345,4.946 C9.765,4.946 10.105,5.287 10.105,5.707 C10.105,6.127 9.765,6.467 9.345,6.467 M2.657,6.467 C2.237,6.467 1.897,6.127 1.897,5.707 C1.897,5.287 2.237,4.946 2.657,4.946 C3.076,4.946 3.417,5.287 3.417,5.707 C3.417,6.127 3.076,6.467 2.657,6.467 M1.967,3.278 L2.863,1.055 C2.962,0.806 3.26,0.603 3.525,0.603 L8.477,0.603 C8.741,0.603 9.038,0.806 9.139,1.055 L10.034,3.278 C10.134,3.527 10,3.731 9.737,3.731 L2.265,3.731 C2.001,3.731 1.867,3.527 1.967,3.278 M11.3544,8.1151 L11.3544,8.6071 C11.3544,8.9551 11.0854,9.2381 10.7554,9.2381 L10.7554,9.2381 L9.9724,9.2381 C9.6414,9.2381 9.3714,8.9551 9.3714,8.6071 L9.3714,8.6071 L9.3714,8.1151 L11.3544,8.1151 Z M2.6298,8.1151 L2.6298,8.6071 C2.6298,8.9551 2.3608,9.2381 2.0298,9.2381 L2.0298,9.2381 L1.2468,9.2381 C0.9158,9.2381 0.6468,8.9551 0.6468,8.6071 L0.6468,8.6071 L0.6468,8.1151 L2.6298,8.1151 Z M8.769,0 C9.21,0 9.706,0.349 9.873,0.779 L9.873,0.779 L10.465,2.295 L10.769,3.073 L11.491,3.073 C11.772,3.073 12,3.313 12,3.61 C12,3.905 11.772,4.145 11.491,4.145 L11.491,4.145 L11.167,4.145 C11.276,4.533 11.355,5.018 11.355,5.357 L11.355,5.357 L11.355,7.617 L0.647,7.617 L0.647,5.357 C0.647,5.018 0.726,4.533 0.834,4.145 L0.834,4.145 L0.509,4.145 C0.228,4.145 0,3.905 0,3.61 C0,3.313 0.228,3.073 0.509,3.073 L0.509,3.073 L1.233,3.073 L1.537,2.292 L2.128,0.779 C2.295,0.349 2.791,0 3.233,0 L3.233,0 Z" id="path-1"></path>
    </defs>
    <g id="Final" stroke="none" stroke-width="1" fill="none" fill-rule="evenodd">
        <g id="All-Nucleo-Icons" transform="translate(-174.000000, -1052.000000)">
            <g id="Solo/Nucleo/12px/car-driving" transform="translate(168.000000, 1045.000000)">
                <g id="driving" transform="translate(6.000000, 7.000000)">
                    <g id="Colour/Default-Colour">
                        <g>
                            <mask id="mask-2" fill="white">
                                <use xlink:href="#path-1"></use>
                            </mask>
                            <use id="Mask" fill="#000000" xlink:href="#path-1"></use>
                            <g id="colour/neutral/chia" mask="url(#mask-2)" fill="#737373">
                                <g transform="translate(-18.000000, -19.000000)" id="Colour">
                                    <rect x="0" y="0" width="48" height="48"></rect>
                                </g>
                            </g>
                        </g>
                    </g>
                </g>
            </g>
        </g>
    </g>
</svg>

<svg width="12" height="10" xmlns="http://www.w3.org/2000/svg" xmlns:xlink="http://www.w3.org/1999/xlink"><defs><path d="M9.345 6.467a.76.76 0 11-.001-1.521.76.76 0 01.001 1.521m-6.688 0a.76.76 0 110-1.52.76.76 0 010 1.52m-.69-3.189l.896-2.223a.772.772 0 01.662-.452h4.952c.264 0 .561.203.662.452l.895 2.223c.1.249-.034.453-.297.453H2.265c-.264 0-.398-.204-.298-.453m9.387 4.837v.492c0 .348-.269.631-.599.631h-.783c-.33 0-.6-.283-.6-.63v-.493h1.982zm-8.724 0v.492c0 .348-.27.631-.6.631h-.783c-.331 0-.6-.283-.6-.63v-.493H2.63zM8.769 0c.441 0 .937.349 1.104.779l.592 1.516.304.778h.722c.281 0 .509.24.509.537a.523.523 0 01-.509.535h-.324c.109.388.188.873.188 1.212v2.26H.647v-2.26c0-.339.079-.824.187-1.212H.509A.523.523 0 010 3.61c0-.297.228-.537.509-.537h.724l.304-.781.591-1.513C2.295.349 2.791 0 3.233 0z" id="car-driving-12px_svg__a"/></defs><use fill="#737373" xlink:href="#car-driving-12px_svg__a" fill-rule="evenodd"/></svg>
